X: 36893
T: Shoemaker's Daughter, The
R: reel
M: 4/4
K: Gmajor
[G,2G2][G,D]G BcdB|G=FDE FD[CF]F|~G2GA Bcde|fdBd c2Bc|
dggf dedc|Bcde fdga|gfdB cBAG|1 FGAF GDEF:|2 FGAF ~G2Bd||
|:g2dg bgdg|gdag fd^cd|[A=f]f (3gff af[cf]f|=fedB cBAB|
dggf dedc|Bcde fdga|gfdB cBAG|1 FGAF ~G2Bd:|2 FGAF GDEF||

